!!!SOCIAL_FUNCTION:	songs used in the treatment of the sick
!!!PDT:	1922
!!!OTL: No_61_Song_Used_in_Treatment_of_Sick_(j).krn
!!!REG: Southwest
!!!LANG: Non-Tone
!!!LING_GROUP: Uto-Aztecan
**kern
*staff1
=1-
*clefG2
*k[b-e-a-d-g-]
*M2/4
[2a-/
=2||
*M3/4
2.a-/]
=3
8dd-/L
8a-/J
8dd-\L
8cc\J
8.dd-/L
16a-/Jk
=4
8dd-/L
8f/J
8f/L
8f/J
8f/L
8e-/J
=5||
*M2/4
8a-/L
8f/J
8f/L
8a-/J
=6
8f/L
8e-/J
8d-/L
8d-/J
=7
8e-/L
8e-/J
8e-/L
8e-/J
=8||
*M3/4
4d-/
8d-/L
8d-/J
4d-/
=9
4A-/
4A-/
4A-/
=10
8f/L
8d-/J
8d-/L
8e-/J
8e-/L
8e-/J
=11||
*M2/4
4d-/
8e-/L
8e-/J
=12||
*M3/4
2.d-/
=13
2.d-/
==
*-
